Catalina-dark/actions/16/taxes-finances.svg

<?xml version="1.0" encoding="UTF-8" standalone="no"?>
<svg
   xmlns:dc="http://purl.org/dc/elements/1.1/"
   xmlns:cc="http://creativecommons.org/ns#"
   xmlns:rdf="http://www.w3.org/1999/02/22-rdf-syntax-ns#"
   xmlns:svg="http://www.w3.org/2000/svg"
   xmlns="http://www.w3.org/2000/svg"
   xmlns:sodipodi="http://sodipodi.sourceforge.net/DTD/sodipodi-0.dtd"
   xmlns:inkscape="http://www.inkscape.org/namespaces/inkscape"
   width="16"
   height="16"
   viewBox="0 0 16 16"
   version="1.1"
   id="svg7"
   sodipodi:docname="help-donate.svg"
   inkscape:version="0.92.4 5da689c313, 2019-01-14">
  <metadata
     id="metadata11">
    <rdf:RDF>
      <cc:Work
         rdf:about="">
        <dc:format>image/svg+xml</dc:format>
        <dc:type
           rdf:resource="http://purl.org/dc/dcmitype/StillImage" />
      </cc:Work>
    </rdf:RDF>
  </metadata>
  <sodipodi:namedview
     pagecolor="#ffffff"
     bordercolor="#666666"
     borderopacity="1"
     objecttolerance="10"
     gridtolerance="10"
     guidetolerance="10"
     inkscape:pageopacity="0"
     inkscape:pageshadow="2"
     inkscape:window-width="640"
     inkscape:window-height="480"
     id="namedview9"
     showgrid="false"
     inkscape:zoom="14.75"
     inkscape:cx="6.8135593"
     inkscape:cy="8"
     inkscape:window-x="0"
     inkscape:window-y="26"
     inkscape:window-maximized="0"
     inkscape:current-layer="svg7" />
  <defs
     id="defs3">
    <style
       id="current-color-scheme"
       type="text/css">
   .ColorScheme-Text { color:#5c616c; } .ColorScheme-Highlight { color:#5294e2; }
  </style>
  </defs>
  <path
     style="fill:#f1f6f8;fill-opacity:0.8509804"
     class="ColorScheme-Text"
     d="M 6 0.0390625 L 6 1.171875 C 5.0228 1.313675 4.1907094 1.5690031 3.5371094 1.9707031 C 2.5266094 2.5856031 2.0214844 3.5287813 2.0214844 4.8007812 C 2.0168844 6.9960812 3.579 7.7194656 6 8.3847656 L 6 13.376953 C 4.8273 13.277953 3.7551469 13.056266 2.6230469 12.572266 L 2 13.929688 C 2.5645 14.230688 3.3272625 14.491844 4.2890625 14.714844 C 4.8332625 14.836844 5.4003 14.91475 6 14.96875 L 6 16.039062 L 9 16.039062 L 9 14.921875 C 10.997 14.636875 12.979984 13.718422 12.958984 11.232422 C 12.888984 9.4037218 11.756 8.7248594 9 7.7558594 L 9 2.8027344 C 9.9033 2.9234344 11.001609 3.1749562 12.224609 3.7851562 L 13 2.2421875 C 12.449 1.9466875 11.168516 1.4757813 10.353516 1.3007812 C 9.9195152 1.2081812 9.467 1.1451625 9 1.1015625 L 9 0.0390625 L 6 0.0390625 z M 6 2.7988281 L 6 6.796875 C 4.773 6.362475 3.6429814 5.7037687 3.6757812 4.6054688 C 3.6161813 3.5641688 4.6802 3.0146281 6 2.7988281 z M 9 9.25 C 10.281 9.6986 11.319875 10.285453 11.296875 11.314453 C 11.257875 12.710453 10.165 13.197281 9 13.363281 L 9 9.25 z"
     id="path5" />
</svg>

<svg width="16" height="16" version="1.1" viewBox="0 0 16 16" xmlns="http://www.w3.org/2000/svg">
<defs>
<style id="current-color-scheme" type="text/css">.ColorScheme-Text { color:#5c616c; } .ColorScheme-Highlight { color:#5294e2; }</style>
</defs>
<path class="ColorScheme-Text" d="m6 0.039062v1.1328c-0.9772 0.1418-1.8093 0.39713-2.4629 0.79883-1.0105 0.6149-1.5156 1.5581-1.5156 2.8301-0.0046 2.1953 1.5575 2.9187 3.9785 3.584v4.9922c-1.1727-0.099-2.2449-0.32069-3.377-0.80469l-0.62305 1.3574c0.5645 0.301 1.3273 0.56216 2.2891 0.78516 0.5442 0.122 1.1112 0.19991 1.7109 0.25391v1.0703h3v-1.1172c1.997-0.285 3.98-1.2035 3.959-3.6895-0.07-1.8287-1.203-2.5076-3.959-3.4766v-4.9531c0.9033 0.1207 2.0016 0.37222 3.2246 0.98242l0.77539-1.543c-0.551-0.2955-1.8315-0.76641-2.6465-0.94141-0.434-0.0926-0.88652-0.15562-1.3535-0.19922v-1.0625h-3zm0 2.7598v3.998c-1.227-0.4344-2.357-1.0931-2.3242-2.1914-0.0596-1.0413 1.0044-1.5908 2.3242-1.8066zm3 6.4512c1.281 0.4486 2.3199 1.0355 2.2969 2.0645-0.039 1.396-1.1319 1.8828-2.2969 2.0488v-4.1133z" fill="#dedede" fill-opacity=".85098"/>
</svg>
